X:1
T:1 INFANT JOY
T:7 AH! SUN-FLOWER
T:TEN BLAKE SONGS
T:R. VAUGHAN WILLIAMS
T:WILLIAM BLAKE (1757-1827)
T:FOR VOICE AND OBOE
T:(Tenor )
C:R. VAUGHAN wILLIAMS
Z:WILLIAM BLAKE 51757-1827°
%%score 1 2
L:1/8
Q:1/4=68
M:13/8
K:Ab
V:1 treble-8 nm="Voice" snm="T."
V:2 treble nm="Oboe"
V:1
"^Moderato" z13 |[M:4/4]"^senza misura" A2 (3:2:2G D2 (3GDE A2- | AG (3AcA G2 DE | A4 Bc (3dcB | %4
w: |Ah, Sun- flower! wea- ry of time,|_ Who coun- test the steps of the|sun; Seek- ing af- ter that|
 A2 cG (3A2 D2 E2 | (3AGD (3(FDF- F)F E2 | D4- D z !fermata!z2 |[M:4/4] (3z DE A2 DE (3AcA | %8
w: sweet gol- den clime, Where the|trav- el- er's jour- * * * ney is|done; _|Where the Youth pined a- way with de-|
 G4 AB c2 | dc (3AcG A4- | A2 A2 d2!<(! ed!<)! | f2 ed (3e2 d2 c2 | (3d2 c2 =A2 G2 D2 | %13
w: sire, And the pale|Vir- gin shroud- ed in snow,|_ A- rise from their|graves, and as- pire _ _|_ where my Sun- flower|
[M:3/4] (3(FDF- F)F E2 |[M:4/4] !fermata!D8- |[M:4/4] D z z2 !fermata!z4 |] %16
w: wish- * * * es to|go.|_|
V:2
"^senza misura" (3(c/d/f/ d2 cA (3GDE A2 (3GDE !fermata!A2- |[M:4/4] A) z z2 !fermata!z4 | z8 | %3
 z (3(a/d/e/ (a4-) ag) | (f3 e) A4- | A2 z2 z4 | %6
[M:6/4]"^senza misura" z2/3 (3(c/d/f/ d2 cA (3GDE A2 (3GDE |[M:4/4] A4-) A z z2 | %8
 z (3(c/d/f/ d2-) d z z2 | d4!<(! (d a2!<)! g) | (f2 e2 d2 cA | _A6 G2 | F4- F) z z2 |[M:3/4] z6 | %14
[M:6/4]"^senza misura" z4/3 (3gfd (3c2 =B2!>(! A2 F2 _E2!>)! |[M:4/4] !fermata!D8 |] %16

